build/img/0-common/arrow-left.svg

<svg width="16" height="16" viewBox="0 0 16 16" fill="none" xmlns="http://www.w3.org/2000/svg">
<g clip-path="url(#clip0)">
<path d="M14.3929 6.95737C14.3321 6.9475 14.2705 6.94295 14.209 6.94375H3.72757L3.95612 6.83744C4.17952 6.73171 4.38276 6.5878 4.55673 6.41224L7.49598 3.47298C7.88308 3.10345 7.94813 2.50899 7.65012 2.06448C7.30327 1.59081 6.63812 1.48796 6.16441 1.8348C6.12614 1.86284 6.08977 1.8934 6.05559 1.92629L0.740483 7.24139C0.325108 7.6563 0.324743 8.32936 0.739653 8.74473C0.739919 8.745 0.740218 8.7453 0.740483 8.74557L6.05559 14.0607C6.47129 14.4752 7.14435 14.4743 7.55893 14.0586C7.59155 14.0259 7.62201 13.991 7.65012 13.9544C7.94813 13.5099 7.88308 12.9154 7.49598 12.5459L4.56204 9.6013C4.40608 9.44517 4.22676 9.31425 4.03053 9.21329L3.71163 9.06979H14.1505C14.6935 9.08995 15.17 8.71062 15.272 8.17685C15.366 7.59734 14.9724 7.05138 14.3929 6.95737Z" fill="white"/>
</g>
<defs>
<clipPath id="clip0">
<rect width="14.8571" height="14.8571" fill="white" transform="translate(0.428711 0.571533)"/>
</clipPath>
</defs>
</svg>

<svg width="16" height="16" fill="none" xmlns="http://www.w3.org/2000/svg"><g clip-path="url(#clip0)"><path d="M14.393 6.957a1.062 1.062 0 00-.184-.013H3.728l.228-.107c.224-.105.427-.25.6-.425l2.94-2.939a1.1 1.1 0 00.154-1.409 1.063 1.063 0 00-1.594-.138L.74 7.241a1.063 1.063 0 000 1.504l5.316 5.316a1.063 1.063 0 001.594-.107 1.1 1.1 0 00-.154-1.408L4.562 9.6a2.126 2.126 0 00-.531-.388l-.32-.143h10.44a1.1 1.1 0 001.121-.893c.094-.58-.3-1.126-.88-1.22z" fill="#fff"/></g><defs><clipPath id="clip0"><path fill="#fff" transform="translate(.429 .572)" d="M0 0h14.857v14.857H0z"/></clipPath></defs></svg>
